X:920
T: My Wife's My Own
T: Liom F\'ein Amh\'ain Mo Bheansa
S: B.Breathnach:"Ceol Rince na hEireann" IV/44
Z: B.Black
L: 1/8
M: 9/8
R: slipjig
K: Ador
E2A A2B c2A|E2A A2c BAG|E2A A2B c2A|B2G G2c BAG :|
E2e e2d c2A|A2B c2d efg|a2e e2d c2A|B2G G2c BAG :|
